static/assets/images/tokens/usdbc.svg

<svg width="256" height="256" viewBox="0 0 256 256" fill="none" xmlns="http://www.w3.org/2000/svg">
<path fill-rule="evenodd" clip-rule="evenodd" d="M256 128C256 57.3075 198.692 0 128 0C57.3075 0 0 57.3075 0 128C0 198.692 57.3075 256 128 256C198.692 256 256 198.692 256 128ZM216.374 133.223C217.65 110.171 209.968 87.518 194.935 69.9967C180.343 52.9912 159.922 42.0967 137.725 39.4207V78.6217C156.579 81.9065 166.919 94.316 167.284 108.672H144.172C144.172 101.007 139.428 95.411 127.75 95.411C116.559 95.411 112.18 101.251 112.18 107.091C112.18 114.634 117.289 116.823 126.534 118.283L136.995 119.865C154.39 122.542 168.5 129.72 168.5 150.037C168.5 166.826 156.457 178.506 137.603 181.547V201.5H119.6V181.669C99.7724 178.993 87 166.705 87 149.429H109.99C109.99 159.648 117.046 164.758 128.48 164.758C140.157 164.758 145.51 159.04 145.51 151.984C145.51 144.562 140.644 143.224 130.548 141.399L119.6 139.453C101.719 136.411 89.0679 128.381 89.0679 109.037C89.0679 93.951 100.137 81.4199 119.478 78.5V39.0948C96.9108 41.0005 75.8865 51.3952 60.6653 68.2064C45.1697 85.3206 36.887 107.761 37.5476 130.838C38.2083 153.916 47.7612 175.845 64.2105 192.045C80.6598 208.245 102.733 217.461 125.818 217.769C148.903 218.077 171.214 209.452 188.089 193.697C204.964 177.941 215.099 156.274 216.374 133.223Z" fill="#1552F0"/>
<path d="M194.935 69.9967C209.968 87.518 217.65 110.171 216.374 133.223C215.099 156.274 204.964 177.941 188.089 193.697C171.214 209.452 148.903 218.077 125.818 217.769C102.733 217.461 80.6598 208.245 64.2105 192.045C47.7612 175.845 38.2083 153.916 37.5476 130.838C36.887 107.761 45.1697 85.3206 60.6653 68.2064C75.8865 51.3952 96.9108 41.0005 119.478 39.0948V78.5C100.137 81.4199 89.0679 93.951 89.0679 109.037C89.0679 128.381 101.719 136.411 119.6 139.453L130.548 141.399C140.644 143.224 145.51 144.562 145.51 151.984C145.51 159.04 140.157 164.758 128.48 164.758C117.046 164.758 109.99 159.648 109.99 149.429H87C87 166.705 99.7724 178.993 119.6 181.669V201.5H137.603V181.547C156.457 178.506 168.5 166.826 168.5 150.037C168.5 129.72 154.39 122.542 136.995 119.865L126.534 118.283C117.289 116.823 112.18 114.634 112.18 107.091C112.18 101.251 116.559 95.411 127.75 95.411C139.428 95.411 144.172 101.007 144.172 108.672H167.284C166.919 94.316 156.579 81.9065 137.725 78.6217V39.4207C159.922 42.0967 180.343 52.9912 194.935 69.9967Z" fill="white"/>
</svg>

<svg xmlns="http://www.w3.org/2000/svg" fill="none" viewBox="0 0 256 256"><path fill="#1552F0" fill-rule="evenodd" d="M256 128C256 57.308 198.692 0 128 0S0 57.308 0 128s57.308 128 128 128 128-57.308 128-128m-39.626 5.223a89.5 89.5 0 0 0-78.649-93.802v39.2c18.854 3.285 29.194 15.695 29.559 30.051h-23.112c0-7.665-4.744-13.261-16.422-13.261-11.191 0-15.57 5.84-15.57 11.68 0 7.543 5.109 9.732 14.354 11.192l10.461 1.582c17.395 2.677 31.505 9.855 31.505 30.172 0 16.789-12.043 28.469-30.897 31.51V201.5H119.6v-19.831c-19.828-2.676-32.6-14.964-32.6-32.24h22.99c0 10.219 7.056 15.329 18.49 15.329 11.677 0 17.03-5.718 17.03-12.774 0-7.422-4.866-8.76-14.962-10.585l-10.948-1.946c-17.881-3.042-30.532-11.072-30.532-30.416 0-15.086 11.069-27.617 30.41-30.537V39.095a89.5 89.5 0 1 0 96.896 94.128" clip-rule="evenodd"/><path fill="#fff" d="M194.935 69.997a89.5 89.5 0 0 1-6.846 123.7 89.5 89.5 0 1 1-68.611-154.602V78.5c-19.341 2.92-30.41 15.451-30.41 30.537 0 19.344 12.651 27.374 30.532 30.416l10.948 1.946c10.096 1.825 14.962 3.163 14.962 10.585 0 7.056-5.353 12.774-17.03 12.774-11.434 0-18.49-5.11-18.49-15.329H87c0 17.276 12.772 29.564 32.6 32.24V201.5h18.003v-19.953c18.854-3.041 30.897-14.721 30.897-31.51 0-20.317-14.11-27.495-31.505-30.172l-10.461-1.582c-9.245-1.46-14.354-3.649-14.354-11.192 0-5.84 4.379-11.68 15.57-11.68 11.678 0 16.422 5.596 16.422 13.261h23.112c-.365-14.356-10.705-26.766-29.559-30.05V39.42a89.5 89.5 0 0 1 57.21 30.576"/></svg>
